src/assets/icons/numbers,simple,08.svg

<svg width="48" height="48" viewBox="0 0 48 48" fill="none" xmlns="http://www.w3.org/2000/svg">
<rect opacity="0.2" x="5" y="5" width="38" height="38" rx="4" fill="black"/>
<path d="M23.9904 36.3082C29.0763 36.3082 32.7311 33.5891 32.7421 29.9343C32.7311 27.1161 30.5625 24.8153 27.8544 24.364V24.2099C30.2102 23.7255 31.8945 21.6889 31.9055 19.212C31.8945 15.7223 28.5479 13.1463 23.9904 13.1463C19.4218 13.1463 16.0752 15.7223 16.0862 19.212C16.0752 21.6779 17.7375 23.7255 20.1374 24.2099V24.364C17.3853 24.8153 15.2386 27.1161 15.2496 29.9343C15.2386 33.5891 18.9044 36.3082 23.9904 36.3082ZM23.9904 32.8075C21.7226 32.8075 20.2034 31.4645 20.2034 29.56C20.2034 27.6115 21.7997 26.2024 23.9904 26.2024C26.1701 26.2024 27.7773 27.6115 27.7773 29.56C27.7773 31.4755 26.2471 32.8075 23.9904 32.8075ZM23.9904 22.7347C22.0859 22.7347 20.7318 21.4908 20.7318 19.7074C20.7318 17.946 22.0639 16.7351 23.9904 16.7351C25.9059 16.7351 27.2489 17.957 27.2489 19.7074C27.2489 21.4908 25.8838 22.7347 23.9904 22.7347Z" fill="black"/>
</svg>

<svg xmlns="http://www.w3.org/2000/svg" width="48" height="48" fill="none" viewBox="0 0 48 48">
  <rect width="38" height="38" x="5" y="5" fill="#000" opacity=".2" rx="4"/>
  <path fill="#000" d="M23.99 36.308c5.086 0 8.741-2.719 8.752-6.374-.01-2.818-2.18-5.119-4.888-5.57v-.154c2.356-.485 4.04-2.521 4.052-4.998-.011-3.49-3.358-6.066-7.916-6.066-4.568 0-7.915 2.576-7.904 6.066-.01 2.466 1.652 4.514 4.051 4.998v.154c-2.752.451-4.898 2.752-4.887 5.57-.011 3.655 3.654 6.374 8.74 6.374zm0-3.5c-2.267 0-3.787-1.343-3.787-3.248 0-1.948 1.597-3.358 3.787-3.358 2.18 0 3.787 1.41 3.787 3.358 0 1.916-1.53 3.247-3.787 3.247zm0-10.073c-1.904 0-3.258-1.244-3.258-3.028 0-1.761 1.332-2.972 3.258-2.972 1.916 0 3.259 1.222 3.259 2.972 0 1.784-1.365 3.028-3.259 3.028z"/>
</svg>
